X: 1
T: Banana Feet
M: 4/4
L: 1/8
R: reel
K: Dmix
|:~D2~D2 FGAD|EA,G,A GECE|~D2~D2 FGAd|1 cAGc ADDC:|2 cAGc ADDd||
|:cAGA ~F3d|cAGc ADDd|cdBG {B}AGAB|cBcA GcBc|
Ecec {e}d^cde|dBGB A^cde|fgfe dfef|d=cAF Gede:|
K:Dmaj 
|:fd~d2 Adfd|~e3f gece|cd{e}dc dcAd|=cAGE FDDe|
~f3g afdf|e^c~c2 Acec|dGBd gbag|1 (3fed ec dcde:|2 (3fed ec dAAB||
K:Dmix
|:~c3E FGAB|cAFc BGBd|cE~E2 FGAB|1 cBcA GBAB:|2 cBcA GECE||
